;TIME:7422.62
;Filament used:12.76123m
;Layer height:0.200
; HEADER_BLOCK_START
; generated by Creality_Print V0.0.1.0 on 2024-12-24 at 15:08:36
; total layer number: 155
; filament_density: 1.24
; filament_diameter: 1.75
; max_z_height: 31.00
; HEADER_BLOCK_END

; MINX = 53.01
; MINY = 53.00
; MINZ = 0.00
; MAXX = 166.99
; MAXY = 167.00
; MAXZ = 30.99

; THUMBNAIL_BLOCK_START

;
; THUMBNAIL_BLOCK_END

; THUMBNAIL_BLOCK_START

;
; THUMBNAIL_BLOCK_END

; external perimeters extrusion width = 0.42mm
; perimeters extrusion width = 0.45mm
; infill extrusion width = 0.45mm
; solid infill extrusion width = 0.42mm
; top infill extrusion width = 0.42mm
; first layer extrusion width = 0.50mm

; external perimeters extrusion width = 0.42mm
; perimeters extrusion width = 0.45mm
; infill extrusion width = 0.45mm
; solid infill extrusion width = 0.42mm
; top infill extrusion width = 0.42mm
; first layer extrusion width = 0.50mm

; external perimeters extrusion width = 0.42mm
; perimeters extrusion width = 0.45mm
; infill extrusion width = 0.45mm
; solid infill extrusion width = 0.42mm
; top infill extrusion width = 0.42mm
; first layer extrusion width = 0.50mm

; external perimeters extrusion width = 0.42mm
; perimeters extrusion width = 0.45mm
; infill extrusion width = 0.45mm
; solid infill extrusion width = 0.42mm
; top infill extrusion width = 0.42mm
; first layer extrusion width = 0.50mm

; external perimeters extrusion width = 0.42mm
; perimeters extrusion width = 0.45mm
; infill extrusion width = 0.45mm
; solid infill extrusion width = 0.42mm
; top infill extrusion width = 0.42mm
; first layer extrusion width = 0.50mm

; external perimeters extrusion width = 0.42mm
; perimeters extrusion width = 0.45mm
; infill extrusion width = 0.45mm
; solid infill extrusion width = 0.42mm
; top infill extrusion width = 0.42mm
; first layer extrusion width = 0.50mm

; external perimeters extrusion width = 0.42mm
; perimeters extrusion width = 0.45mm
; infill extrusion width = 0.45mm
; solid infill extrusion width = 0.42mm
; top infill extrusion width = 0.42mm
; first layer extrusion width = 0.50mm

; external perimeters extrusion width = 0.42mm
; perimeters extrusion width = 0.45mm
; infill extrusion width = 0.45mm
; solid infill extrusion width = 0.42mm
; top infill extrusion width = 0.42mm
; first layer extrusion width = 0.50mm

; external perimeters extrusion width = 0.42mm
; perimeters extrusion width = 0.45mm
; infill extrusion width = 0.45mm
; solid infill extrusion width = 0.42mm
; top infill extrusion width = 0.42mm
; first layer extrusion width = 0.50mm

; EXECUTABLE_BLOCK_START
M73 P0 R123
M201 X5000 Y5000 Z500 E5000
M203 X500 Y500 Z30 E100
M204 P5000 R2500 T5000 ; sets acceleration (P, T) and retract acceleration (R), mm/sec^2
M205 X10.00 Y10.00 Z0.40 E5.00 ; sets the jerk limits, mm/sec
;TYPE:Custom
M220 S100 ;Reset Feedrate 
M221 S100 ;Reset Flowrate 
 
M140 S50 ;Set final bed temp 
G28 ;Home 
 
G92 E0 ;Reset Extruder 
G1 Z2.0 F3000 ;Move Z Axis up 
M104 S190 ;Set final nozzle temp 
G1 X-2.1 Y20 Z0.28 F5000.0 ;Move to start position 
M190 S50 ;Wait for bed temp to stabilize 
M109 S190 ;Wait for nozzle temp to stabilize 
G1 X-2.1 Y145.0 Z0.28 F1500.0 E15 ;Draw the first line 
G1 X-2.4 Y145.0 Z0.28 F5000.0 ;Move to side a little 
G1 X-2.4 Y20 Z0.28 F1500.0 E30 ;Draw the second line 
G92 E0  ;Reset Extruder 
G1 E-1.0000 F1800 ;Retract a bit 
G1 Z2.0 F3000 ;Move Z Axis up 
G1 E0.0000 F1800
G90
G21
M83 ; use relative distances for extrusion
M106 S0
;LAYER_CHANGE
;Z:0.2
;HEIGHT:0.2
;BEFORE_LAYER_CHANGE
;0.2
G92 E0

G1 E-.8 F1800
;_SET_FAN_SPEED_CHANGING_LAYER
M204 P500
M205 X10 Y10
; printing object  id:0 copy 0
M204 T500
G1 X64.726 Y138.678 F9000
G1 Z.4
G1 Z.2
G1 E.8 F1800
;TYPE:Inner wall
;WIDTH:0.499999
G1 X64.972 Y138.62 E.0091
G3 X81.045 Y147.719 I3.037 J13.381 E.73157
G3 X81.694 Y151.101 I-13.674 J4.375 E.12462
G1 X81.725 Y152.388 E.04651
G3 X64.139 Y138.837 I-13.716 J-.387 E2.17905
G1 X64.688 Y138.689 E.02054
G1 X63.949 Y138.412 F9000
;TYPE:Outer wall
G1 F1800
G1 X64.01 Y138.397 E.00225
G3 X81.48 Y147.576 I3.998 J13.604 E.78807
G3 X82.15 Y151.07 I-14.141 J4.523 E.12877
G1 X82.182 Y152.402 E.04807
G3 X63.233 Y138.65 I-14.174 J-.4 E2.22229
G1 X63.911 Y138.425 E.02582
G1 E-.8
;WIPE_START
G1 F9000
G1 X64.01 Y138.397
G1 X64.87 Y138.169
G1 X65.745 Y138
G1 X65.861 Y137.985
;WIPE_END
G1 Z.6
G1 X75.809 Y140.857
G1 Z.6
G1 Z.2
G1 E.8 F1800
;TYPE:Bottom surface
;WIDTH:0.504872
G1 F4800
G1 X77.777 Y142.825 E.10159
G3 X79.341 Y144.846 I-10.957 J10.095 E.09335
G1 X79.627 Y145.329 E.02047
G1 X74.681 Y140.382 E.25525
G1 X74.427 Y140.233 E.01076
G1 X73.677 Y139.853 E.03068
G1 X73.365 Y139.72 E.01236
G1 X80.283 Y146.638 E.35701
G3 X80.701 Y147.709 I-8.475 J3.923 E.04198
G1 X72.298 Y139.306 E.43363
G1 X72.109 Y139.239 E.00734
G1 X71.363 Y139.024 E.02833
G1 X80.984 Y148.645 E.4965
G3 X81.164 Y149.479 I-9.337 J2.458 E.03114
G1 X70.519 Y138.834 E.54936
G1 X69.744 Y138.712 E.02864
G1 X81.289 Y150.257 E.59579
G3 X81.365 Y150.986 I-5.796 J.976 E.02679
G1 X69.017 Y138.638 E.63724
G2 X68.33 Y138.605 I-.611 J5.431 E.02512
G1 X81.403 Y151.677 E.67462
G1 X81.405 Y152.333 E.02392
G1 X67.675 Y138.603 E.70855
G2 X67.054 Y138.636 I-.06 J4.717 E.02268
G1 X81.37 Y152.951 E.73878
G3 X81.314 Y153.548 I-4.817 J-.157 E.02188
G1 X66.457 Y138.691 E.7667
G1 X65.878 Y138.766 E.02128
G1 X81.238 Y154.126 E.79264
G1 X81.134 Y154.675 E.02042
G1 X65.33 Y138.871 E.81559
G2 X64.796 Y138.991 I.67 J4.248 E.01998
G1 X81.013 Y155.208 E.83689
G3 X80.88 Y155.728 I-4.205 J-.802 E.0196
G1 X64.278 Y139.125 E.85677
G2 X63.783 Y139.284 I1.027 J4.056 E.01897
G1 X80.721 Y156.222 E.87411
G3 X80.554 Y156.708 I-4.648 J-1.334 E.01875
G1 X63.298 Y139.452 E.89049
G2 X62.832 Y139.64 I1.624 J4.706 E.01833
G1 X80.366 Y157.173 E.90482
G1 X80.169 Y157.63 E.01814
G1 X62.377 Y139.838 E.91816
G2 X61.939 Y140.054 I1.485 J3.569 E.01782
G1 X79.951 Y158.066 E.92953
G3 X79.728 Y158.495 I-3.538 J-1.567 E.01769
G1 X61.508 Y140.275 E.94026
G1 X61.098 Y140.519 E.01739
G1 X79.486 Y158.907 E.94892
G3 X79.235 Y159.309 I-3.16 J-1.695 E.01731
G1 X60.694 Y140.768 E.95681
G1 X60.307 Y141.034 E.01715
G1 X78.971 Y159.698 E.96316
G3 X78.697 Y160.077 I-3.222 J-2.039 E.01708
G1 X59.928 Y141.309 E.96854
G1 X59.561 Y141.595 E.01699
G1 X78.412 Y160.445 E.9728
G3 X78.11 Y160.797 I-3.017 J-2.282 E.01692
G1 X59.207 Y141.894 E.97549
G1 X58.861 Y142.202 E.01689
G1 X77.805 Y161.145 E.9776
G1 X77.479 Y161.473 E.01686
G1 X58.532 Y142.526 E.97779
G1 X58.207 Y142.854 E.01686
G1 X77.15 Y161.797 E.9776
G1 X76.804 Y162.104 E.01689
G1 X57.901 Y143.202 E.97549
G2 X57.6 Y143.553 I2.715 J2.633 E.01692
G1 X76.45 Y162.404 E.9728
G1 X76.083 Y162.69 E.01699
G1 X57.315 Y143.922 E.96854
G2 X57.041 Y144.301 I2.949 J2.419 E.01708
G1 X75.704 Y162.964 E.96312
G1 X75.315 Y163.229 E.01716
G1 X56.776 Y144.69 E.95671
G2 X56.525 Y145.092 I2.908 J2.096 E.01731
G1 X74.913 Y163.48 E.94895
G1 X74.503 Y163.723 E.0174
G1 X56.283 Y145.503 E.94026
G2 X56.06 Y145.933 I3.316 J1.998 E.01769
G1 X74.072 Y163.945 E.92952
G3 X73.634 Y164.161 I-1.922 J-3.352 E.01782
G1 X55.842 Y146.369 E.91816
G1 X55.646 Y146.826 E.01814
G1 X73.179 Y164.359 E.90482
G3 X72.71 Y164.544 I-1.733 J-3.705 E.01839
G1 X55.458 Y147.291 E.89035
G2 X55.29 Y147.777 I4.481 J1.82 E.01875
G1 X72.232 Y164.718 E.87429
G3 X71.729 Y164.869 I-1.462 J-3.946 E.01915
G1 X55.131 Y148.271 E.85656
G2 X54.998 Y148.791 I4.071 J1.321 E.0196
G1 X71.218 Y165.011 E.83705
G3 X70.682 Y165.128 I-1.593 J-6.01 E.02004
G1 X54.877 Y149.323 E.81563
G1 X54.773 Y149.873 E.02042
G1 X70.133 Y165.233 E.79264
G1 X69.555 Y165.308 E.02128
G1 X54.698 Y150.451 E.7667
G2 X54.641 Y151.047 I4.762 J.754 E.02188
G1 X68.957 Y165.363 E.73878
G3 X68.336 Y165.396 I-.572 J-4.899 E.02268
G1 X54.606 Y151.666 E.70855
G1 X54.609 Y152.322 E.02392
G1 X67.685 Y165.398 E.67483
G1 X66.994 Y165.36 E.02527
G1 X54.646 Y153.012 E.63723
G2 X54.722 Y153.742 I5.873 J-.246 E.02679
G1 X66.264 Y165.283 E.5956
G3 X65.484 Y165.157 I.608 J-6.227 E.02883
G1 X54.847 Y154.52 E.54895
G2 X55.027 Y155.354 I9.537 J-1.628 E.03114
G1 X64.641 Y164.968 E.49614
G3 X63.713 Y164.693 I1.724 J-7.526 E.03535
G1 X55.31 Y156.29 E.43363
G2 X55.728 Y157.361 I8.893 J-2.852 E.04198
G1 X62.647 Y164.28 E.35705
G1 X62.336 Y164.146 E.01237
G1 X61.585 Y163.766 E.03071
G1 X61.33 Y163.616 E.01078
G1 X56.384 Y158.67 E.25522
G1 X56.67 Y159.153 E.02046
G2 X58.235 Y161.174 I12.523 J-8.076 E.0934
G1 X60.202 Y163.142 E.10153
G1 E-.8 F1800
;WIPE_START
G1 F9000
G1 X58.788 Y161.727
;WIPE_END
G1 X62.947 Y155.327 Z.6
G1 X73.134 Y139.649 Z.6
M73 P0 R122
G1 Z.2
G1 E.8 F1800
;TYPE:Gap infill
;WIDTH:0.224577
G1 X72.937 Y139.516 E.00341
;WIDTH:0.208513
G1 X72.741 Y139.383 E.00311
G1 E-.8
;WIPE_START
G1 F9000
G1 X72.937 Y139.516
;WIPE_END
G1 X75.686 Y140.98 Z.6
G1 Z.2
G1 E.8 F1800
;WIDTH:0.146745
G1 X75.423 Y140.763 E.00279
G1 E-.8
;WIPE_START
G1 F9000
G1 X75.686 Y140.98
;WIPE_END
G1 X80.123 Y146.118 Z.6
G1 Z.2
G1 E.8 F1800
;WIDTH:0.119339
G1 X80.02 Y145.977 E.00105
;WIDTH:0.162476
G1 X79.918 Y145.837 E.00165
;WIDTH:0.205614
G1 X79.815 Y145.696 E.00224
;WIDTH:0.227182
G1 X79.712 Y145.555 E.00254
G1 E-.8
;WIPE_START
G1 F9000
G1 X79.815 Y145.696
;WIPE_END
G1 X75.221 Y151.79 Z.6
G1 X65.139 Y165.166 Z.6
G1 Z.2
G1 E.8 F1800
;WIDTH:0.0977705
G1 X64.874 Y165.026 E.0013
G1 E-.8
;WIPE_START
G1 F9000
G1 X65.139 Y165.166
;WIPE_END
G1 X63.274 Y164.619 Z.6
G1 Z.2
G1 E.8 F1800
;WIDTH:0.202601
G1 X62.878 Y164.351 E.00604
G1 E-.8
;WIPE_START
G1 F9000
G1 X63.274 Y164.619
;WIPE_END
G1 X60.588 Y163.235 Z.6
G1 Z.2
G1 E.8 F1800
;WIDTH:0.0977702
G1 X60.325 Y163.019 E.00147
G1 E-.8
;WIPE_START
G1 F9000
G1 X60.588 Y163.235
;WIPE_END
G1 X56.299 Y158.444 Z.6
G1 Z.2
G1 E.8 F1800
;WIDTH:0.248773
G1 X56.196 Y158.303 E.00284
;WIDTH:0.205629
G1 X56.094 Y158.162 E.00224
;WIDTH:0.162485
G1 X55.991 Y158.021 E.00165
;WIDTH:0.140913
G1 X55.888 Y157.881 E.00135
; stop printing object  id:0 copy 0
; printing object  id:31525678432190556 copy 0
G1 E-.8
;WIPE_START
G1 F9000
G1 X55.991 Y158.021
;WIPE_END
G1 X63.619 Y158.287 Z.6
G1 X120.935 Y160.286 Z.6
G1 Z.2
G1 E.8 F1800
;TYPE:Inner wall
;WIDTH:0.499999
G1 X120.664 Y160.639 E.01605
G3 X121.03 Y143.819 I-10.656 J-8.646 E2.45924
G3 X123.712 Y151.43 I-11.254 J8.244 E.29558
G1 X123.711 Y152.723 E.0467
G3 X121.186 Y159.953 I-13.703 J-.73 E.28022
G1 X120.959 Y160.254 E.01363
G1 X121.703 Y160.003 F9000
;TYPE:Outer wall
G1 F1800
G1 X121.559 Y160.218 E.00936
G3 X122.141 Y144.655 I-11.551 J-8.225 E2.62155
G3 X124.169 Y151.411 I-12.488 J7.43 E.25724
G1 X124.168 Y152.747 E.04824
G3 X122.053 Y159.477 I-14.16 J-.754 E.25739
G1 X121.726 Y159.97 E.02137
G1 E-.8
;WIPE_START
G1 F9000
G1 X121.559 Y160.218
G1 X121.021 Y160.928
G1 X120.491 Y161.541
;WIPE_END
G1 X119.508 Y153.972 Z.6
G1 X117.803 Y140.842 Z.6
G1 Z.2
G1 E.8 F1800
;TYPE:Bottom surface
;WIDTH:0.505038
G1 F4800
G1 X119.719 Y142.758 E.09892
G3 X121.619 Y145.312 I-9.93 J9.373 E.11648
G1 X116.689 Y140.382 E.25453
G1 X116.348 Y140.185 E.01437
G1 X115.594 Y139.81 E.03075
G1 X115.368 Y139.715 E.00894
G1 X122.284 Y146.631 E.35704
G3 X122.705 Y147.705 I-8.534 J3.961 E.04213
G1 X114.303 Y139.303 E.43373
G2 X113.367 Y139.021 I-2.767 J7.477 E.03572
G1 X122.979 Y148.633 E.49622
G1 X123.168 Y149.475 E.03152
G1 X112.525 Y138.832 E.54943
G2 X111.747 Y138.707 I-1.328 J5.777 E.02881
G1 X123.295 Y150.256 E.59618
G1 X123.371 Y150.985 E.02678
G1 X111.019 Y138.634 E.63766
G2 X110.331 Y138.599 I-.626 J5.585 E.02517
G1 X123.402 Y151.669 E.67476
G3 X123.4 Y152.321 I-5.178 J.311 E.0238
G1 X109.677 Y138.598 E.70843
G2 X109.054 Y138.629 I-.077 J4.757 E.02277
G1 X123.372 Y152.946 E.73911
G3 X123.319 Y153.547 I-6.845 J-.302 E.02201
G1 X108.455 Y138.683 E.76734
G1 X107.879 Y138.761 E.02119
G1 X123.237 Y154.119 E.79282
G1 X123.137 Y154.672 E.02053
G1 X107.33 Y138.865 E.81604
G2 X106.794 Y138.983 I.67 J4.313 E.02003
G1 X123.018 Y155.207 E.83755
G3 X122.877 Y155.719 I-5.882 J-1.348 E.0194
G1 X106.279 Y139.121 E.85687
G2 X105.782 Y139.278 I1.001 J4.025 E.01902
G1 X122.722 Y156.218 E.87453
G1 X122.553 Y156.703 E.01873
G1 X105.295 Y139.445 E.89093
G1 X104.831 Y139.634 E.0183
G1 X122.365 Y157.168 E.90518
G3 X122.169 Y157.626 I-3.732 J-1.327 E.01818
G1 X104.376 Y139.833 E.91853
G1 X103.936 Y140.046 E.01787
G1 X121.952 Y158.062 E.93008
G3 X121.727 Y158.49 I-3.516 J-1.576 E.01768
G1 X103.51 Y140.274 E.9404
G1 X103.092 Y140.509 E.01752
G1 X121.487 Y158.904 E.94963
G3 X121.235 Y159.305 I-3.313 J-1.807 E.01731
G1 X102.691 Y140.761 E.95731
G2 X102.304 Y141.028 I2.836 J4.521 E.01716
G1 X120.973 Y159.698 E.96379
G3 X120.695 Y160.073 I-3.119 J-2.025 E.01706
G1 X101.924 Y141.302 E.96903
G1 X101.559 Y141.591 E.01698
G1 X120.412 Y160.444 E.97328
G1 X120.109 Y160.794 E.01691
G1 X101.204 Y141.889 E.976
G1 X100.859 Y142.197 E.01689
G1 X119.802 Y161.141 E.97794
G1 X119.479 Y161.471 E.01687
G1 X100.526 Y142.518 E.97845
G2 X100.208 Y142.853 I3.082 J3.236 E.01688
G1 X119.148 Y161.793 E.97776
G1 X118.803 Y162.102 E.01689
G1 X99.894 Y143.193 E.97616
G2 X99.6 Y143.552 I2.704 J2.522 E.01696
G1 X118.45 Y162.403 E.97314
G3 X118.082 Y162.688 I-3.419 J-4.04 E.01701
G1 X99.309 Y143.915 E.96913
G1 X99.037 Y144.297 E.01711
G1 X117.706 Y162.965 E.96376
G3 X117.312 Y163.226 I-2.315 J-3.072 E.01723
G1 X98.772 Y144.685 E.95717
G1 X98.521 Y145.088 E.01732
G1 X116.915 Y163.482 E.94958
G3 X116.5 Y163.72 I-2.913 J-4.588 E.01748
G1 X98.282 Y145.502 E.94049
G1 X98.054 Y145.927 E.01762
G1 X116.07 Y163.944 E.93008
G3 X115.63 Y164.157 I-1.959 J-3.475 E.01786
G1 X97.843 Y146.37 E.91825
G2 X97.638 Y146.819 I4.234 J2.2 E.01802
G1 X115.178 Y164.358 E.90545
G3 X114.707 Y164.542 I-1.69 J-3.646 E.01844
G1 X97.454 Y147.288 E.89068
G1 X97.286 Y147.774 E.01874
G1 X114.228 Y164.716 E.87466
G1 X113.726 Y164.868 E.01915
G1 X97.132 Y148.273 E.85666
G1 X96.989 Y148.784 E.01935
G1 X113.211 Y165.006 E.83743
G1 X112.681 Y165.129 E.01986
G1 X96.871 Y149.319 E.81619
G1 X96.771 Y149.873 E.02055
G1 X112.124 Y165.226 E.79255
G3 X111.55 Y165.305 I-.92 J-4.52 E.02116
M73 P1 R122
G1 X96.695 Y150.45 E.76689
G2 X96.637 Y151.046 I4.706 J.757 E.02186
G1 X110.957 Y165.366 E.73926
G1 X110.329 Y165.392 E.02293
G1 X96.604 Y151.667 E.70856
G1 X96.608 Y152.324 E.024
G1 X109.674 Y165.391 E.67455
G3 X108.991 Y165.36 I0 J-7.773 E.02499
G1 X96.644 Y153.014 E.63739
G2 X96.719 Y153.742 I5.968 J-.246 E.02675
G1 X108.258 Y165.281 E.59568
G3 X107.479 Y165.155 I.633 J-6.406 E.02883
G1 X96.848 Y154.525 E.54879
G2 X97.036 Y155.367 I6.407 J-.99 E.03151
G1 X106.636 Y164.966 E.49556
G3 X105.701 Y164.685 I1.819 J-7.748 E.03564
G1 X97.316 Y156.3 E.4329
G2 X97.719 Y157.357 I8.809 J-2.757 E.04133
G1 X104.637 Y164.274 E.3571
G3 X103.327 Y163.617 I4.564 J-10.742 E.05352
G1 X98.395 Y158.686 E.2546
G1 X98.533 Y158.931 E.01028
G2 X100.541 Y161.486 I11.355 J-6.86 E.11892
G1 X102.181 Y163.125 E.08463
G1 E-.8 F1800
;WIPE_START
G1 F9000
G1 X100.766 Y161.711
;WIPE_END
G1 X104.931 Y155.315 Z.6
G1 X115.137 Y139.645 Z.6
G1 Z.2
G1 E.8 F1800
;TYPE:Gap infill
;WIDTH:0.221823
G1 X115.004 Y139.556 E.00226
;WIDTH:0.187647
G1 X114.872 Y139.466 E.00182
;WIDTH:0.170559
G1 X114.739 Y139.377 E.00161
G1 E-.8
;WIPE_START
G1 F9000
G1 X114.872 Y139.466
;WIPE_END
G1 X117.679 Y140.965 Z.6
G1 Z.2
G1 E.8 F1800
;WIDTH:0.146032
G1 X117.429 Y140.761 E.00263
G1 E-.8
;WIPE_START
G1 F9000
G1 X117.679 Y140.965
;WIPE_END
G1 X122.125 Y146.112 Z.6
G1 Z.2
G1 E.8 F1800
;WIDTH:0.117343
G1 X122.049 Y146.006 E.00077
;WIDTH:0.156489
G1 X121.973 Y145.9 E.00117
;WIDTH:0.195634
G1 X121.897 Y145.794 E.00157
;WIDTH:0.229258
G1 X121.8 Y145.667 E.00236
;WIDTH:0.243308
G1 X121.703 Y145.539 E.00254
G1 E-.8
;WIPE_START
G1 F9000
G1 X121.8 Y145.667
;WIPE_END
G1 X116.781 Y151.417 Z.6
G1 X105.268 Y164.609 Z.6
G1 Z.2
G1 E.8 F1800
;WIDTH:0.09777
G1 X104.862 Y164.354 E.00208
G1 E-.8
;WIPE_START
G1 F9000
G1 X105.268 Y164.609
;WIPE_END
G1 X102.59 Y163.242 Z.6
G1 Z.2
G1 E.8 F1800
;WIDTH:0.101233
G1 X102.544 Y163.206 E.00027
;WIDTH:0.104697
G1 X102.303 Y163.002 E.00154
G1 E-.8
;WIPE_START
G1 F9000
G1 X102.544 Y163.206
;WIPE_END
G1 X98.311 Y158.459 Z.6
G1 Z.2
G1 E.8 F1800
;WIDTH:0.257176
G1 X98.214 Y158.33 E.00274
;WIDTH:0.228706
