;TIME:2746.26
;Filament used:2.68340m
;Layer height:0.200
; HEADER_BLOCK_START
; generated by Creality_Print V0.0.1.0 on 2024-12-24 at 15:08:06
; total layer number: 429
; filament_density: 1.24
; filament_diameter: 1.75
; max_z_height: 85.80
; HEADER_BLOCK_END

; MINX = 89.00
; MINY = 105.80
; MINZ = 0.00
; MAXX = 131.00
; MAXY = 114.20
; MAXZ = 85.80

; THUMBNAIL_BLOCK_START

;
; THUMBNAIL_BLOCK_END

; THUMBNAIL_BLOCK_START

;
; THUMBNAIL_BLOCK_END

; external perimeters extrusion width = 0.42mm
; perimeters extrusion width = 0.45mm
; infill extrusion width = 0.45mm
; solid infill extrusion width = 0.42mm
; top infill extrusion width = 0.42mm
; first layer extrusion width = 0.50mm

; EXECUTABLE_BLOCK_START
M73 P0 R45
M201 X5000 Y5000 Z500 E5000
M203 X500 Y500 Z30 E100
M204 P5000 R2500 T5000 ; sets acceleration (P, T) and retract acceleration (R), mm/sec^2
M205 X10.00 Y10.00 Z0.40 E5.00 ; sets the jerk limits, mm/sec
;TYPE:Custom
M220 S100 ;Reset Feedrate 
M221 S100 ;Reset Flowrate 
 
M140 S50 ;Set final bed temp 
G28 ;Home 
 
G92 E0 ;Reset Extruder 
G1 Z2.0 F3000 ;Move Z Axis up 
M104 S190 ;Set final nozzle temp 
G1 X-2.1 Y20 Z0.28 F5000.0 ;Move to start position 
M190 S50 ;Wait for bed temp to stabilize 
M109 S190 ;Wait for nozzle temp to stabilize 
G1 X-2.1 Y145.0 Z0.28 F1500.0 E15 ;Draw the first line 
G1 X-2.4 Y145.0 Z0.28 F5000.0 ;Move to side a little 
G1 X-2.4 Y20 Z0.28 F1500.0 E30 ;Draw the second line 
G92 E0  ;Reset Extruder 
G1 E-1.0000 F1800 ;Retract a bit 
G1 Z2.0 F3000 ;Move Z Axis up 
G1 E0.0000 F1800
G90
G21
M83 ; use relative distances for extrusion
M106 S255
;LAYER_CHANGE
;Z:0.2
;HEIGHT:0.2
;BEFORE_LAYER_CHANGE
;0.2
G92 E0

G1 E-.8 F1800
;_SET_FAN_SPEED_CHANGING_LAYER
M204 P500
M205 X10 Y10
; printing object  id:1869921106432 copy 0
M204 T500
G1 X130.403 Y106.072 F9000
G1 Z.4
G1 Z.2
G1 E.8 F1800
;TYPE:Outer wall
;WIDTH:0.52819
G1 X130.694 Y106.106 E.01124
G1 X130.729 Y106.454 E.01341
;WIDTH:0.499823
G1 X130.763 Y106.802 E.01262
;WIDTH:0.471456
G1 X130.763 Y113.297 E.21987
;WIDTH:0.500055
G1 X130.728 Y113.595 E.01084
;WIDTH:0.528654
G1 X130.694 Y113.894 E.01152
G1 X130.346 Y113.928 E.01342
;WIDTH:0.500055
G1 X129.998 Y113.963 E.01263
;WIDTH:0.471456
G1 X123.501 Y113.963 E.21992
;WIDTH:0.500055
G1 X123.203 Y113.928 E.01084
;WIDTH:0.528654
G1 X122.904 Y113.894 E.01152
G1 X122.87 Y113.546 E.01341
;WIDTH:0.500055
G1 X122.835 Y113.198 E.01262
;WIDTH:0.471456
G1 X122.835 Y106.702 E.2199
;WIDTH:0.499823
G1 X122.869 Y106.404 E.01083
;WIDTH:0.52819
G1 X122.904 Y106.106 E.0115
G1 X123.252 Y106.071 E.01341
;WIDTH:0.499327
G1 X123.6 Y106.036 E.01261
;WIDTH:0.470464
G1 X130.097 Y106.036 E.21942
;WIDTH:0.499326
G1 X130.363 Y106.067 E.00965
G1 E-.8
;WIPE_START
G1 F9000
G1 X130.694 Y106.106
G1 X130.729 Y106.454
G1 X130.763 Y106.802
G1 X130.763 Y107.769
;WIPE_END
G1 X123.284 Y106.654 Z.6
G1 Z.2
G1 E.8 F1800
;WIDTH:0.52819
G1 X123.306 Y106.506 E.00572
G1 X123.453 Y106.485 E.00571
;WIDTH:0.499327
G1 X123.6 Y106.464 E.00537
;WIDTH:0.470464
G1 X129.998 Y106.464 E.21607
;WIDTH:0.499326
G1 X130.145 Y106.485 E.00537
;WIDTH:0.52819
G1 X130.293 Y106.506 E.00571
G1 X130.314 Y106.654 E.00572
;WIDTH:0.499823
G1 X130.335 Y106.802 E.00539
;WIDTH:0.471456
G1 X130.335 Y113.198 E.21651
;WIDTH:0.500055
G1 X130.313 Y113.345 E.00537
;WIDTH:0.528654
G1 X130.292 Y113.492 E.0057
G1 X130.145 Y113.513 E.00571
;WIDTH:0.500055
G1 X129.998 Y113.535 E.00537
;WIDTH:0.471456
G1 X123.6 Y113.535 E.21656
;WIDTH:0.500055
G1 X123.453 Y113.513 E.00537
;WIDTH:0.528654
G1 X123.306 Y113.492 E.00571
G1 X123.285 Y113.345 E.0057
;WIDTH:0.500055
G1 X123.263 Y113.198 E.00537
;WIDTH:0.471456
G1 X123.263 Y106.802 E.21651
;WIDTH:0.497986
G1 X123.279 Y106.694 E.00393
G1 E-.8
;WIPE_START
G1 F9000
G1 X123.306 Y106.506
G1 X123.453 Y106.485
G1 X123.6 Y106.464
G1 X125.113 Y106.464
;WIPE_END
G1 X117.736 Y108.42 Z.6
G1 X97.094 Y113.894 Z.6
G1 Z.2
G1 E.8 F1800
;WIDTH:0.52865
G1 X96.746 Y113.928 E.01341
;WIDTH:0.500053
G1 X96.398 Y113.963 E.01262
;WIDTH:0.471456
G1 X89.902 Y113.963 E.2199
;WIDTH:0.499823
G1 X89.604 Y113.929 E.01083
;WIDTH:0.52819
G1 X89.306 Y113.894 E.0115
G1 X89.271 Y113.546 E.01341
;WIDTH:0.499328
G1 X89.236 Y113.198 E.01261
;WIDTH:0.470465
G1 X89.236 Y106.702 E.21941
;WIDTH:0.499095
G1 X89.271 Y106.403 E.01081
;WIDTH:0.527725
G1 X89.305 Y106.105 E.01149
G1 X89.654 Y106.071 E.0134
;WIDTH:0.499095
G1 X90.002 Y106.036 E.01261
;WIDTH:0.470464
G1 X96.497 Y106.036 E.21937
;WIDTH:0.499326
G1 X96.796 Y106.071 E.01083
;WIDTH:0.528187
G1 X97.094 Y106.106 E.01152
G1 X97.129 Y106.454 E.01341
;WIDTH:0.499818
G1 X97.163 Y106.802 E.01262
;WIDTH:0.471449
G1 X97.163 Y113.297 E.21987
;WIDTH:0.50005
G1 X97.128 Y113.595 E.01084
;WIDTH:0.52865
G1 X97.098 Y113.854 E.00999
G1 X96.713 Y113.345 F9000
G1 F1800
G1 X96.692 Y113.492 E.0057
G1 X96.545 Y113.513 E.0057
;WIDTH:0.500053
G1 X96.398 Y113.535 E.00537
;WIDTH:0.471456
G1 X90.002 Y113.535 E.21651
;WIDTH:0.499823
G1 X89.854 Y113.514 E.00539
;WIDTH:0.52819
G1 X89.706 Y113.493 E.00572
G1 X89.685 Y113.345 E.0057
;WIDTH:0.499328
G1 X89.664 Y113.198 E.00536
;WIDTH:0.470465
G1 X89.664 Y106.802 E.21602
;WIDTH:0.497276
G1 X89.685 Y106.654 E.00536
;WIDTH:0.527725
G1 X89.706 Y106.506 E.00572
G1 X89.854 Y106.485 E.00572
;WIDTH:0.499095
G1 X90.002 Y106.464 E.00538
;WIDTH:0.470464
G1 X96.398 Y106.464 E.21602
;WIDTH:0.499326
G1 X96.545 Y106.485 E.00536
;WIDTH:0.528187
G1 X96.693 Y106.506 E.0057
G1 X96.714 Y106.654 E.00572
;WIDTH:0.499818
G1 X96.735 Y106.802 E.00539
;WIDTH:0.471449
G1 X96.735 Y113.198 E.21651
;WIDTH:0.50005
G1 X96.719 Y113.305 E.00392
; stop printing object  id:1869921106432 copy 0
G1 E-.8
;WIPE_START
G1 F9000
G1 X96.692 Y113.492
G1 X96.545 Y113.513
G1 X96.398 Y113.535
G1 X94.884 Y113.535
;WIPE_END
;TIME_ELAPSED:17.900545

;LAYER_CHANGE
;Z:0.4
;HEIGHT:0.2
;BEFORE_LAYER_CHANGE
;0.4
G92 E0

;_SET_FAN_SPEED_CHANGING_LAYER
M204 P2500
; printing object  id:1869921106432 copy 0
M204 T2500
G1 Z.6 F9000
G1 X130.424 Y106.055
G1 Z.4
G1 E.8 F1800
M204 P1000
;WIDTH:0.544402
G1 F3600
G1 X130.727 Y106.073 E.01203
G1 X130.763 Y106.678 E.02398
;WIDTH:0.471457
G1 X130.763 Y113.371 E.22657
;WIDTH:0.50822
G1 X130.745 Y113.649 E.01024
;WIDTH:0.544982
G1 X130.727 Y113.927 E.01105
G1 X130.424 Y113.945 E.01204
;WIDTH:0.50822
G1 X130.12 Y113.963 E.01116
;WIDTH:0.471457
G1 X123.478 Y113.963 E.22487
;WIDTH:0.50822
G1 X123.175 Y113.945 E.01116
;WIDTH:0.544982
G1 X122.872 Y113.927 E.01204
G1 X122.853 Y113.623 E.01204
;WIDTH:0.508219
G1 X122.835 Y113.32 E.01116
;WIDTH:0.471456
G1 X122.835 Y106.678 E.22487
;WIDTH:0.507929
G1 X122.853 Y106.375 E.01112
;WIDTH:0.544401
G1 X122.871 Y106.073 E.01199
G1 X123.174 Y106.055 E.01203
;WIDTH:0.507433
G1 X123.478 Y106.036 E.01114
;WIDTH:0.470465
G1 X130.12 Y106.036 E.22435
;WIDTH:0.507434
G1 X130.384 Y106.052 E.00968
G1 E-.8 F1800
;WIPE_START
G1 F9000
G1 X130.727 Y106.073
G1 X130.763 Y106.678
G1 X130.763 Y107.728
;WIPE_END
G1 X123.263 Y106.677 Z.8
G1 Z.4
G1 E.8 F1800
;WIDTH:0.507929
G1 F3600
G1 X123.282 Y106.589 E.00329
;WIDTH:0.544401
G1 X123.3 Y106.501 E.00358
G1 X123.389 Y106.482 E.0036
;WIDTH:0.507433
G1 X123.478 Y106.464 E.00333
;WIDTH:0.470465
G1 X130.12 Y106.464 E.22435
;WIDTH:0.507434
G1 X130.209 Y106.482 E.00333
;WIDTH:0.544402
G1 X130.298 Y106.501 E.0036
G1 X130.317 Y106.589 E.00358
;WIDTH:0.50793
G1 X130.335 Y106.678 E.00332
;WIDTH:0.471457
G1 X130.335 Y113.32 E.22487
;WIDTH:0.50822
G1 X130.316 Y113.409 E.00333
;WIDTH:0.544982
G1 X130.298 Y113.498 E.00359
G1 X130.209 Y113.516 E.00359
;WIDTH:0.50822
G1 X130.12 Y113.535 E.00333
;WIDTH:0.471457
G1 X123.478 Y113.535 E.22487
;WIDTH:0.50822
G1 X123.389 Y113.516 E.00333
;WIDTH:0.544982
G1 X123.3 Y113.498 E.00359
G1 X123.282 Y113.409 E.00359
;WIDTH:0.508219
G1 X123.263 Y113.32 E.00333
;WIDTH:0.471456
G1 X123.263 Y106.717 E.22354
G1 E-.8 F1800
;WIPE_START
G1 F9000
G1 X123.282 Y106.589
G1 X123.3 Y106.501
G1 X123.389 Y106.482
G1 X123.478 Y106.464
G1 X125.077 Y106.464
;WIPE_END
G1 X117.703 Y108.433 Z.8
G1 X97.127 Y113.927 Z.8
G1 Z.4
G1 E.8 F1800
;WIDTH:0.544978
G1 F3600
G1 X96.824 Y113.945 E.01204
;WIDTH:0.508218
G1 X96.52 Y113.963 E.01116
;WIDTH:0.471457
G1 X89.878 Y113.963 E.22487
;WIDTH:0.50793
G1 X89.575 Y113.945 E.01112
;WIDTH:0.544402
G1 X89.273 Y113.927 E.01199
G1 X89.255 Y113.624 E.01203
;WIDTH:0.507434
G1 X89.236 Y113.32 E.01114
;WIDTH:0.470465
G1 X89.236 Y106.678 E.22435
;WIDTH:0.507143
G1 X89.255 Y106.375 E.01111
;WIDTH:0.54382
G1 X89.273 Y106.073 E.01198
G1 X89.575 Y106.055 E.01198
;WIDTH:0.507143
G1 X89.878 Y106.036 E.01111
;WIDTH:0.470465
G1 X96.52 Y106.036 E.22435
;WIDTH:0.507431
G1 X96.824 Y106.055 E.01114
;WIDTH:0.544397
G1 X97.127 Y106.073 E.01203
G1 X97.163 Y106.678 E.02398
;WIDTH:0.471449
G1 X97.163 Y113.371 E.22656
;WIDTH:0.508214
G1 X97.145 Y113.649 E.01024
;WIDTH:0.544978
G1 X97.129 Y113.887 E.00946
G1 X96.735 Y113.32 F9000
;WIDTH:0.508214
G1 F3600
G1 X96.716 Y113.409 E.00333
;WIDTH:0.544978
G1 X96.698 Y113.498 E.00359
G1 X96.609 Y113.516 E.00359
;WIDTH:0.508218
G1 X96.52 Y113.535 E.00333
;WIDTH:0.471457
G1 X89.878 Y113.535 E.22487
;WIDTH:0.50793
G1 X89.789 Y113.517 E.00332
;WIDTH:0.544402
G1 X89.701 Y113.498 E.00358
G1 X89.682 Y113.409 E.0036
;WIDTH:0.507434
G1 X89.664 Y113.32 E.00333
;WIDTH:0.470465
G1 X89.664 Y106.678 E.22435
;WIDTH:0.507143
G1 X89.682 Y106.589 E.00332
;WIDTH:0.54382
G1 X89.7 Y106.5 E.00358
G1 X89.789 Y106.482 E.00358
;WIDTH:0.507143
G1 X89.878 Y106.464 E.00332
;WIDTH:0.470465
G1 X96.52 Y106.464 E.22435
;WIDTH:0.507431
G1 X96.609 Y106.482 E.00333
;WIDTH:0.544397
G1 X96.698 Y106.501 E.0036
G1 X96.717 Y106.589 E.00358
;WIDTH:0.507923
G1 X96.735 Y106.678 E.00332
;WIDTH:0.471449
G1 X96.735 Y113.28 E.22351
; stop printing object  id:1869921106432 copy 0
G1 E-.8 F1800
;WIPE_START
G1 F9000
G1 X96.716 Y113.409
G1 X96.698 Y113.498
G1 X96.609 Y113.516
G1 X96.52 Y113.535
G1 X94.922 Y113.535
;WIPE_END
;TIME_ELAPSED:21.786339

;LAYER_CHANGE
;Z:0.6
;HEIGHT:0.2
;BEFORE_LAYER_CHANGE
;0.6
G92 E0

;_SET_FAN_SPEED_CHANGING_LAYER
; printing object  id:1869921106432 copy 0
G1 Z.8 F9000
G1 X130.424 Y106.055
G1 Z.6
G1 E.8 F1800
;WIDTH:0.544402
G1 F3600
G1 X130.727 Y106.073 E.01203
G1 X130.763 Y106.678 E.02398
;WIDTH:0.471457
G1 X130.763 Y113.371 E.22657
;WIDTH:0.50822
G1 X130.745 Y113.649 E.01024
;WIDTH:0.544982
G1 X130.727 Y113.927 E.01105
G1 X130.424 Y113.945 E.01204
;WIDTH:0.50822
G1 X130.12 Y113.963 E.01116
;WIDTH:0.471457
G1 X123.478 Y113.963 E.22487
;WIDTH:0.50822
G1 X123.175 Y113.945 E.01116
;WIDTH:0.544982
G1 X122.872 Y113.927 E.01204
G1 X122.853 Y113.623 E.01204
;WIDTH:0.508219
G1 X122.835 Y113.32 E.01116
;WIDTH:0.471456
G1 X122.835 Y106.678 E.22487
;WIDTH:0.507929
G1 X122.853 Y106.375 E.01112
;WIDTH:0.544401
G1 X122.871 Y106.073 E.01199
G1 X123.174 Y106.055 E.01203
;WIDTH:0.507433
G1 X123.478 Y106.036 E.01114
;WIDTH:0.470465
G1 X130.12 Y106.036 E.22435
;WIDTH:0.507434
G1 X130.384 Y106.052 E.00968
G1 E-.8 F1800
;WIPE_START
G1 F9000
G1 X130.727 Y106.073
G1 X130.763 Y106.678
G1 X130.763 Y107.728
;WIPE_END
G1 X123.263 Y106.677 Z1
G1 Z.6
G1 E.8 F1800
;WIDTH:0.507929
G1 F3600
G1 X123.282 Y106.589 E.00329
;WIDTH:0.544401
G1 X123.3 Y106.501 E.00358
G1 X123.389 Y106.482 E.0036
;WIDTH:0.507433
G1 X123.478 Y106.464 E.00333
;WIDTH:0.470465
G1 X130.12 Y106.464 E.22435
;WIDTH:0.507434
G1 X130.209 Y106.482 E.00333
;WIDTH:0.544402
G1 X130.298 Y106.501 E.0036
G1 X130.317 Y106.589 E.00358
;WIDTH:0.50793
G1 X130.335 Y106.678 E.00332
;WIDTH:0.471457
G1 X130.335 Y113.32 E.22487
;WIDTH:0.50822
G1 X130.316 Y113.409 E.00333
;WIDTH:0.544982
G1 X130.298 Y113.498 E.00359
G1 X130.209 Y113.516 E.00359
;WIDTH:0.50822
G1 X130.12 Y113.535 E.00333
;WIDTH:0.471457
G1 X123.478 Y113.535 E.22487
;WIDTH:0.50822
G1 X123.389 Y113.516 E.00333
;WIDTH:0.544982
G1 X123.3 Y113.498 E.00359
G1 X123.282 Y113.409 E.00359
;WIDTH:0.508219
G1 X123.263 Y113.32 E.00333
;WIDTH:0.471456
G1 X123.263 Y106.717 E.22354
G1 E-.8 F1800
;WIPE_START
G1 F9000
G1 X123.282 Y106.589
G1 X123.3 Y106.501
G1 X123.389 Y106.482
G1 X123.478 Y106.464
G1 X125.077 Y106.464
;WIPE_END
G1 X117.703 Y108.433 Z1
G1 X97.127 Y113.927 Z1
G1 Z.6
G1 E.8 F1800
;WIDTH:0.544978
G1 F3600
G1 X96.824 Y113.945 E.01204
;WIDTH:0.508218
G1 X96.52 Y113.963 E.01116
;WIDTH:0.471457
G1 X89.878 Y113.963 E.22487
;WIDTH:0.50793
G1 X89.575 Y113.945 E.01112
;WIDTH:0.544402
G1 X89.273 Y113.927 E.01199
G1 X89.255 Y113.624 E.01203
;WIDTH:0.507434
G1 X89.236 Y113.32 E.01114
;WIDTH:0.470465
G1 X89.236 Y106.678 E.22435
;WIDTH:0.507143
G1 X89.255 Y106.375 E.01111
;WIDTH:0.54382
G1 X89.273 Y106.073 E.01198
G1 X89.575 Y106.055 E.01198
;WIDTH:0.507143
G1 X89.878 Y106.036 E.01111
;WIDTH:0.470465
G1 X96.52 Y106.036 E.22435
;WIDTH:0.507431
G1 X96.824 Y106.055 E.01114
;WIDTH:0.544397
G1 X97.127 Y106.073 E.01203
G1 X97.163 Y106.678 E.02398
;WIDTH:0.471449
G1 X97.163 Y113.371 E.22656
;WIDTH:0.508214
G1 X97.145 Y113.649 E.01024
;WIDTH:0.544978
G1 X97.129 Y113.887 E.00946
G1 X96.735 Y113.32 F9000
;WIDTH:0.508214
G1 F3600
G1 X96.716 Y113.409 E.00333
;WIDTH:0.544978
G1 X96.698 Y113.498 E.00359
G1 X96.609 Y113.516 E.00359
;WIDTH:0.508218
G1 X96.52 Y113.535 E.00333
;WIDTH:0.471457
G1 X89.878 Y113.535 E.22487
;WIDTH:0.50793
G1 X89.789 Y113.517 E.00332
;WIDTH:0.544402
G1 X89.701 Y113.498 E.00358
G1 X89.682 Y113.409 E.0036
;WIDTH:0.507434
G1 X89.664 Y113.32 E.00333
;WIDTH:0.470465
G1 X89.664 Y106.678 E.22435
;WIDTH:0.507143
G1 X89.682 Y106.589 E.00332
;WIDTH:0.54382
G1 X89.7 Y106.5 E.00358
G1 X89.789 Y106.482 E.00358
;WIDTH:0.507143
G1 X89.878 Y106.464 E.00332
;WIDTH:0.470465
G1 X96.52 Y106.464 E.22435
;WIDTH:0.507431
G1 X96.609 Y106.482 E.00333
;WIDTH:0.544397
G1 X96.698 Y106.501 E.0036
G1 X96.717 Y106.589 E.00358
;WIDTH:0.507923
G1 X96.735 Y106.678 E.00332
;WIDTH:0.471449
G1 X96.735 Y113.28 E.22351
; stop printing object  id:1869921106432 copy 0
G1 E-.8 F1800
;WIPE_START
G1 F9000
G1 X96.716 Y113.409
G1 X96.698 Y113.498
G1 X96.609 Y113.516
G1 X96.52 Y113.535
G1 X94.922 Y113.535
;WIPE_END
;TIME_ELAPSED:25.671883

;LAYER_CHANGE
;Z:0.8
;HEIGHT:0.2
;BEFORE_LAYER_CHANGE
;0.8
G92 E0

;_SET_FAN_SPEED_CHANGING_LAYER
; printing object  id:1869921106432 copy 0
G1 Z1 F9000
G1 X130.424 Y106.055
G1 Z.8
G1 E.8 F1800
;WIDTH:0.544402
G1 F3600
G1 X130.727 Y106.073 E.01203
G1 X130.763 Y106.678 E.02398
;WIDTH:0.471457
G1 X130.763 Y113.371 E.22657
;WIDTH:0.50822
G1 X130.745 Y113.649 E.01024
;WIDTH:0.544982
G1 X130.727 Y113.927 E.01105
G1 X130.424 Y113.945 E.01204
;WIDTH:0.50822
G1 X130.12 Y113.963 E.01116
;WIDTH:0.471457
G1 X123.478 Y113.963 E.22487
;WIDTH:0.50822
G1 X123.175 Y113.945 E.01116
;WIDTH:0.544982
G1 X122.872 Y113.927 E.01204
G1 X122.853 Y113.623 E.01204
;WIDTH:0.508219
G1 X122.835 Y113.32 E.01116
;WIDTH:0.471456
G1 X122.835 Y106.678 E.22487
;WIDTH:0.507929
G1 X122.853 Y106.375 E.01112
;WIDTH:0.544401
G1 X122.871 Y106.073 E.01199
G1 X123.174 Y106.055 E.01203
;WIDTH:0.507433
G1 X123.478 Y106.036 E.01114
;WIDTH:0.470465
G1 X130.12 Y106.036 E.22435
;WIDTH:0.507434
G1 X130.384 Y106.052 E.00968
G1 E-.8 F1800
;WIPE_START
G1 F9000
G1 X130.727 Y106.073
G1 X130.763 Y106.678
G1 X130.763 Y107.728
;WIPE_END
G1 X123.263 Y106.677 Z1.2
G1 Z.8
G1 E.8 F1800
;WIDTH:0.507929
G1 F3600
G1 X123.282 Y106.589 E.00329
;WIDTH:0.544401
G1 X123.3 Y106.501 E.00358
G1 X123.389 Y106.482 E.0036
;WIDTH:0.507433
G1 X123.478 Y106.464 E.00333
;WIDTH:0.470465
G1 X130.12 Y106.464 E.22435
;WIDTH:0.507434
G1 X130.209 Y106.482 E.00333
;WIDTH:0.544402
G1 X130.298 Y106.501 E.0036
G1 X130.317 Y106.589 E.00358
;WIDTH:0.50793
G1 X130.335 Y106.678 E.00332
;WIDTH:0.471457
G1 X130.335 Y113.32 E.22487
;WIDTH:0.50822
G1 X130.316 Y113.409 E.00333
;WIDTH:0.544982
G1 X130.298 Y113.498 E.00359
G1 X130.209 Y113.516 E.00359
;WIDTH:0.50822
G1 X130.12 Y113.535 E.00333
;WIDTH:0.471457
G1 X123.478 Y113.535 E.22487
;WIDTH:0.50822
G1 X123.389 Y113.516 E.00333
;WIDTH:0.544982
M73 P1 R45
G1 X123.3 Y113.498 E.00359
G1 X123.282 Y113.409 E.00359
;WIDTH:0.508219
G1 X123.263 Y113.32 E.00333
;WIDTH:0.471456
G1 X123.263 Y106.717 E.22354
G1 E-.8 F1800
;WIPE_START
G1 F9000
G1 X123.282 Y106.589
G1 X123.3 Y106.501
G1 X123.389 Y106.482
G1 X123.478 Y106.464
G1 X125.077 Y106.464
;WIPE_END
G1 X117.703 Y108.433 Z1.2
