;TIME:2038.94
;Filament used:4.19137m
;Layer height:0.200
; HEADER_BLOCK_START
; generated by Creality_Print V0.0.1.0 on 2024-12-24 at 15:06:21
; total layer number: 7
; filament_density: 1.24
; filament_diameter: 1.75
; max_z_height: 1.40
; HEADER_BLOCK_END

; MINX = 48.00
; MINY = 63.00
; MINZ = 0.00
; MAXX = 172.00
; MAXY = 157.00
; MAXZ = 1.40

; THUMBNAIL_BLOCK_START

;
; THUMBNAIL_BLOCK_END

; THUMBNAIL_BLOCK_START

;
; THUMBNAIL_BLOCK_END

; external perimeters extrusion width = 0.42mm
; perimeters extrusion width = 0.45mm
; infill extrusion width = 0.45mm
; solid infill extrusion width = 0.48mm
; top infill extrusion width = 0.48mm
; first layer extrusion width = 0.50mm

; external perimeters extrusion width = 0.42mm
; perimeters extrusion width = 0.45mm
; infill extrusion width = 0.45mm
; solid infill extrusion width = 0.48mm
; top infill extrusion width = 0.48mm
; first layer extrusion width = 0.50mm

; external perimeters extrusion width = 0.42mm
; perimeters extrusion width = 0.45mm
; infill extrusion width = 0.45mm
; solid infill extrusion width = 0.48mm
; top infill extrusion width = 0.48mm
; first layer extrusion width = 0.50mm

; external perimeters extrusion width = 0.42mm
; perimeters extrusion width = 0.45mm
; infill extrusion width = 0.45mm
; solid infill extrusion width = 0.48mm
; top infill extrusion width = 0.48mm
; first layer extrusion width = 0.50mm

; external perimeters extrusion width = 0.42mm
; perimeters extrusion width = 0.45mm
; infill extrusion width = 0.45mm
; solid infill extrusion width = 0.48mm
; top infill extrusion width = 0.48mm
; first layer extrusion width = 0.50mm

; external perimeters extrusion width = 0.42mm
; perimeters extrusion width = 0.45mm
; infill extrusion width = 0.45mm
; solid infill extrusion width = 0.48mm
; top infill extrusion width = 0.48mm
; first layer extrusion width = 0.50mm

; external perimeters extrusion width = 0.42mm
; perimeters extrusion width = 0.45mm
; infill extrusion width = 0.45mm
; solid infill extrusion width = 0.48mm
; top infill extrusion width = 0.48mm
; first layer extrusion width = 0.50mm

; external perimeters extrusion width = 0.42mm
; perimeters extrusion width = 0.45mm
; infill extrusion width = 0.45mm
; solid infill extrusion width = 0.48mm
; top infill extrusion width = 0.48mm
; first layer extrusion width = 0.50mm

; external perimeters extrusion width = 0.42mm
; perimeters extrusion width = 0.45mm
; infill extrusion width = 0.45mm
; solid infill extrusion width = 0.48mm
; top infill extrusion width = 0.48mm
; first layer extrusion width = 0.50mm

; EXECUTABLE_BLOCK_START
M73 P0 R33
M201 X5000 Y5000 Z500 E5000
M203 X500 Y500 Z30 E100
M204 P5000 R2500 T5000 ; sets acceleration (P, T) and retract acceleration (R), mm/sec^2
M205 X10.00 Y10.00 Z0.40 E5.00 ; sets the jerk limits, mm/sec
;TYPE:Custom
M220 S100 ;Reset Feedrate 
M221 S100 ;Reset Flowrate 
 
M140 S50 ;Set final bed temp 
G28 ;Home 
 
G92 E0 ;Reset Extruder 
G1 Z2.0 F3000 ;Move Z Axis up 
M104 S190 ;Set final nozzle temp 
G1 X-2.1 Y20 Z0.28 F5000.0 ;Move to start position 
M190 S50 ;Wait for bed temp to stabilize 
M109 S190 ;Wait for nozzle temp to stabilize 
G1 X-2.1 Y145.0 Z0.28 F1500.0 E15 ;Draw the first line 
G1 X-2.4 Y145.0 Z0.28 F5000.0 ;Move to side a little 
G1 X-2.4 Y20 Z0.28 F1500.0 E30 ;Draw the second line 
G92 E0  ;Reset Extruder 
G1 E-1.0000 F1800 ;Retract a bit 
G1 Z2.0 F3000 ;Move Z Axis up 
G1 E0.0000 F1800
G90
G21
M83 ; use relative distances for extrusion
M106 S0
;LAYER_CHANGE
;Z:0.2
;HEIGHT:0.2
;BEFORE_LAYER_CHANGE
;0.2
G92 E0

G1 E-.8 F1800
;_SET_FAN_SPEED_CHANGING_LAYER
M204 P500
M205 X10 Y10
; printing object  id:6065 copy 0
M204 T500
G1 X58.02 Y81.686 F9000
G1 Z.4
G1 Z.2
G1 E.8 F1800
;TYPE:Inner wall
;WIDTH:0.499999
G1 X49.314 Y81.686 E.25148
G1 X49.314 Y64.314 E.50178
G1 X86.686 Y64.314 E1.07947
G1 X86.686 Y81.686 E.50178
G1 X77.686 Y81.686 E.25997
G1 X77.291 Y81.82 E.01205
G1 X76.963 Y82.083 E.01213
G1 X76.759 Y82.427 E.01157
G1 X76.686 Y82.829 E.01178
G1 X76.686 Y91.686 E.25584
G1 X59.314 Y91.686 E.50178
G1 X59.314 Y82.829 E.25584
G1 X59.266 Y82.5 E.00959
G1 X59.119 Y82.189 E.00994
G1 X58.857 Y81.914 E.01096
G1 X58.542 Y81.748 E.0103
G1 X58.171 Y81.686 E.01085
G1 X58.06 Y81.686 E.00321
G1 X58.308 Y82.171 F9000
G1 F1800
G1 X58.171 Y82.143 E.00401
G1 X48.857 Y82.143 E.26904
G1 X48.857 Y63.857 E.52818
G1 X87.143 Y63.857 E1.10588
G1 X87.143 Y82.143 E.52818
G1 X77.7 Y82.143 E.27276
G1 X77.378 Y82.312 E.01051
G1 X77.203 Y82.547 E.00846
G1 X77.143 Y82.829 E.00831
G1 X77.143 Y92.143 E.26904
G1 X58.857 Y92.143 E.52818
G1 X58.857 Y83 E.26409
M73 P1 R33
G1 X58.828 Y82.632 E.01068
G1 X58.691 Y82.381 E.00825
G1 X58.445 Y82.2 E.00881
G1 X58.347 Y82.179 E.00291
G1 X58.4 Y82.829 F9000
;TYPE:Outer wall
G1 F1800
G1 X58.334 Y82.668 E.00503
G1 X58.171 Y82.6 E.00508
G1 X48.4 Y82.6 E.28225
G1 X48.4 Y63.4 E.55459
G1 X87.6 Y63.4 E1.13228
G1 X87.6 Y82.6 E.55459
G1 X77.829 Y82.6 E.28225
G1 X77.666 Y82.668 E.00508
G1 X77.6 Y82.829 E.00503
G1 X77.6 Y92.6 E.28225
G1 X58.4 Y92.6 E.55459
G1 X58.4 Y82.869 E.28109
G1 E-.8
;WIPE_START
G1 F9000
G1 X58.334 Y82.668
G1 X58.171 Y82.6
G1 X56.559 Y82.6
;WIPE_END
G1 Z.6
G1 X86.572 Y65.354
G1 Z.6
G1 Z.2
G1 E.8 F1800
;TYPE:Bottom surface
;WIDTH:0.500667
G1 F4800
G1 X85.852 Y64.634 E.02944
G1 X85.205 Y64.634 E.01873
G1 X86.366 Y65.795 E.04751
G1 X86.366 Y66.443 E.01873
G1 X84.557 Y64.634 E.07399
G1 X83.91 Y64.634 E.01873
G1 X86.366 Y67.09 E.10048
G1 X86.366 Y67.738 E.01873
G1 X83.262 Y64.634 E.12696
G1 X82.615 Y64.634 E.01873
G1 X86.366 Y68.385 E.15344
G1 X86.366 Y69.032 E.01873
G1 X81.968 Y64.634 E.17992
G1 X81.32 Y64.634 E.01873
G1 X86.366 Y69.68 E.20641
G1 X86.366 Y70.327 E.01873
G1 X80.673 Y64.634 E.23289
G1 X80.026 Y64.634 E.01873
G1 X86.366 Y70.974 E.25937
G1 X86.366 Y71.622 E.01873
G1 X79.378 Y64.634 E.28585
G1 X78.731 Y64.634 E.01873
G1 X86.366 Y72.269 E.31234
G1 X86.366 Y72.916 E.01873
G1 X78.084 Y64.634 E.33882
G1 X77.436 Y64.634 E.01873
G1 X86.366 Y73.564 E.3653
G1 X86.366 Y74.211 E.01873
G1 X76.789 Y64.634 E.39178
G1 X76.142 Y64.634 E.01873
G1 X86.366 Y74.858 E.41827
G1 X86.366 Y75.506 E.01873
G1 X75.494 Y64.634 E.44475
G1 X74.847 Y64.634 E.01873
G1 X86.366 Y76.153 E.47123
G1 X86.366 Y76.8 E.01873
G1 X74.2 Y64.634 E.49771
G1 X73.552 Y64.634 E.01873
G1 X86.366 Y77.448 E.5242
G1 X86.366 Y78.095 E.01873
G1 X72.905 Y64.634 E.55068
G1 X72.257 Y64.634 E.01873
G1 X86.366 Y78.743 E.57716
G1 X86.366 Y79.39 E.01873
G1 X71.61 Y64.634 E.60364
G1 X70.963 Y64.634 E.01873
G1 X86.366 Y80.037 E.63012
G1 X86.366 Y80.685 E.01873
G1 X70.315 Y64.634 E.65661
G1 X69.668 Y64.634 E.01873
G1 X86.366 Y81.332 E.68309
G1 X86.366 Y81.366 E.00098
G1 X85.753 Y81.366 E.01773
G1 X69.021 Y64.634 E.68449
G1 X68.373 Y64.634 E.01873
G1 X85.106 Y81.367 E.68451
G1 X84.459 Y81.367 E.01872
G1 X67.726 Y64.634 E.68452
G1 X67.079 Y64.634 E.01873
G1 X83.812 Y81.367 E.68454
G1 X83.165 Y81.368 E.01872
G1 X66.431 Y64.634 E.68455
G1 X65.784 Y64.634 E.01873
G1 X82.518 Y81.368 E.68457
G1 X81.871 Y81.368 E.01872
G1 X65.137 Y64.634 E.68458
G1 X64.489 Y64.634 E.01873
G1 X81.224 Y81.369 E.6846
G1 X80.577 Y81.369 E.01872
G1 X63.842 Y64.634 E.68461
G1 X63.195 Y64.634 E.01873
G1 X79.93 Y81.369 E.68462
G1 X79.283 Y81.37 E.01872
G1 X62.547 Y64.634 E.68464
G1 X61.9 Y64.634 E.01873
G1 X78.636 Y81.37 E.68465
G1 X77.989 Y81.37 E.01872
G1 X61.252 Y64.634 E.68467
G1 X60.605 Y64.634 E.01873
G1 X77.404 Y81.433 E.68721
G2 X76.974 Y81.65 I.397 J1.321 E.01401
G1 X59.958 Y64.634 E.6961
G1 X59.31 Y64.634 E.01873
M73 P2 R33
G1 X76.648 Y81.971 E.70925
G2 X76.435 Y82.406 I1.222 J.867 E.01406
G1 X58.663 Y64.634 E.72703
G1 X58.016 Y64.634 E.01873
G1 X76.37 Y82.988 E.75084
G1 X76.369 Y83.635 E.01872
G1 X57.368 Y64.634 E.77731
G1 X56.721 Y64.634 E.01873
G1 X76.369 Y84.282 E.80378
G1 X76.369 Y84.929 E.01872
G1 X56.074 Y64.634 E.83025
G1 X55.426 Y64.634 E.01873
G1 X76.368 Y85.576 E.85672
G1 X76.368 Y86.223 E.01872
G1 X54.779 Y64.634 E.88319
G1 X54.132 Y64.634 E.01873
G1 X76.368 Y86.87 E.90966
G1 X76.368 Y87.517 E.01872
G1 X53.484 Y64.634 E.93613
G1 X52.837 Y64.634 E.01873
G1 X76.367 Y88.165 E.9626
G1 X76.367 Y88.812 E.01872
G1 X52.19 Y64.634 E.98908
G1 X51.542 Y64.634 E.01873
G1 X76.367 Y89.459 E1.01555
G1 X76.366 Y90.106 E.01872
G1 X50.895 Y64.634 E1.04202
G1 X50.248 Y64.634 E.01873
G1 X76.366 Y90.753 E1.06849
G1 X76.366 Y91.366 E.01773
G1 X76.332 Y91.366 E.00098
G1 X49.634 Y64.668 E1.09218
G1 X49.634 Y65.315 E.01873
G1 X75.685 Y91.366 E1.0657
G1 X75.037 Y91.366 E.01873
G1 X49.634 Y65.963 E1.03921
G1 X49.634 Y66.61 E.01873
G1 X74.39 Y91.366 E1.01273
G1 X73.743 Y91.366 E.01873
G1 X49.634 Y67.257 E.98625
G1 X49.634 Y67.905 E.01873
G1 X73.095 Y91.366 E.95977
G1 X72.448 Y91.366 E.01873
G1 X49.634 Y68.552 E.93328
G1 X49.634 Y69.2 E.01873
G1 X71.8 Y91.366 E.9068
G1 X71.153 Y91.366 E.01873
G1 X49.634 Y69.847 E.88032
G1 X49.634 Y70.494 E.01873
G1 X70.506 Y91.366 E.85384
G1 X69.858 Y91.366 E.01873
G1 X49.634 Y71.142 E.82735
G1 X49.634 Y71.789 E.01873
G1 X69.211 Y91.366 E.80087
G1 X68.564 Y91.366 E.01873
G1 X49.634 Y72.436 E.77439
G1 X49.634 Y73.084 E.01873
G1 X57.921 Y81.37 E.339
G1 X57.273 Y81.37 E.01874
G1 X49.634 Y73.731 E.31251
G1 X49.634 Y74.378 E.01873
G1 X56.626 Y81.37 E.28601
G1 X55.978 Y81.369 E.01874
G1 X49.634 Y75.026 E.25951
G1 X49.634 Y75.673 E.01873
G1 X55.33 Y81.369 E.23302
G1 X54.682 Y81.369 E.01874
G1 X49.634 Y76.32 E.20652
G1 X49.634 Y76.968 E.01873
G1 X54.035 Y81.368 E.18002
G1 X53.387 Y81.368 E.01874
G1 X49.634 Y77.615 E.15353
G1 X49.634 Y78.262 E.01873
G1 X52.739 Y81.368 E.12703
G1 X52.092 Y81.367 E.01874
G1 X49.634 Y78.91 E.10053
G1 X49.634 Y79.557 E.01873
G1 X51.444 Y81.367 E.07404
G1 X50.796 Y81.367 E.01874
G1 X49.634 Y80.205 E.04754
G1 X49.634 Y80.852 E.01873
G1 X50.354 Y81.572 E.02946
G1 E-.8 F1800
G1 X57.909 Y82.657 Z.6 F9000
G1 X59.425 Y82.874 Z.6
G1 Z.2
G1 E.8 F1800
G1 F4800
G1 X67.916 Y91.366 E.34739
G1 X67.269 Y91.366 E.01873
M73 P2 R32
G1 X59.631 Y83.728 E.31247
G1 X59.631 Y84.375 E.01873
G1 X66.622 Y91.366 E.28598
G1 X65.974 Y91.366 E.01873
G1 X59.631 Y85.023 E.25949
G1 X59.632 Y85.671 E.01873
G1 X65.327 Y91.366 E.23299
G1 X64.68 Y91.366 E.01873
G1 X59.632 Y86.318 E.2065
G1 X59.632 Y86.966 E.01873
G1 X64.032 Y91.366 E.18
G1 X63.385 Y91.366 E.01873
G1 X59.632 Y87.613 E.15351
G1 X59.633 Y88.261 E.01873
M73 P3 R32
G1 X62.738 Y91.366 E.12702
G1 X62.09 Y91.366 E.01873
G1 X59.633 Y88.909 E.10052
G1 X59.633 Y89.556 E.01873
G1 X61.443 Y91.366 E.07403
G1 X60.795 Y91.366 E.01873
G1 X59.634 Y90.204 E.04753
G1 X59.634 Y90.852 E.01873
G1 X60.354 Y91.572 E.02945
; stop printing object  id:6065 copy 0
; printing object  id:0 copy 0
G1 E-.8 F1800
;WIPE_START
G1 F9000
G1 X59.634 Y90.852
G1 X59.634 Y90.204
G1 X59.87 Y90.44
;WIPE_END
G1 X59.265 Y98.049 Z.6
G1 X58.02 Y113.686 Z.6
G1 Z.2
G1 E.8 F1800
;TYPE:Inner wall
;WIDTH:0.499999
G1 X49.314 Y113.686 E.33007
G1 X49.314 Y96.314 E.65858
G1 X86.686 Y96.314 E1.41681
G1 X86.686 Y113.686 E.65858
G1 X77.686 Y113.686 E.34121
G1 X77.291 Y113.82 E.01581
G1 X76.963 Y114.083 E.01592
G1 X76.759 Y114.427 E.01519
G1 X76.686 Y114.829 E.01546
G1 X76.686 Y123.686 E.33579
G1 X59.314 Y123.686 E.65858
G1 X59.314 Y114.829 E.33579
G1 X59.266 Y114.5 E.01258
G1 X59.119 Y114.189 E.01305
G1 X58.857 Y113.914 E.01438
G1 X58.542 Y113.748 E.01351
G1 X58.171 Y113.686 E.01424
G1 X58.06 Y113.686 E.00421
G1 X58.308 Y114.171 F9000
G1 F1800
G1 X58.171 Y114.143 E.00527
G1 X48.857 Y114.143 E.35312
G1 X48.857 Y95.857 E.69324
G1 X87.143 Y95.857 E1.45146
G1 X87.143 Y114.143 E.69324
G1 X77.7 Y114.143 E.35799
G1 X77.378 Y114.312 E.0138
G1 X77.203 Y114.547 E.0111
G1 X77.143 Y114.829 E.01091
G1 X77.143 Y124.143 E.35312
G1 X58.857 Y124.143 E.69324
G1 X58.857 Y115 E.34662
G1 X58.828 Y114.632 E.01401
G1 X58.691 Y114.381 E.01083
G1 X58.445 Y114.2 E.01157
G1 X58.347 Y114.179 E.00382
G1 X58.4 Y114.829 F9000
;TYPE:Outer wall
G1 F1800
G1 X58.334 Y114.668 E.0066
G1 X58.171 Y114.6 E.00666
G1 X48.4 Y114.6 E.37045
G1 X48.4 Y95.4 E.7279
G1 X87.6 Y95.4 E1.48612
G1 X87.6 Y114.6 E.7279
G1 X77.829 Y114.6 E.37045
G1 X77.666 Y114.668 E.00666
G1 X77.6 Y114.829 E.0066
G1 X77.6 Y124.6 E.37045
G1 X58.4 Y124.6 E.7279
G1 X58.4 Y114.869 E.36893
G1 E-.8
G1 X64.882 Y110.839 Z.6 F9000
G1 X86.572 Y97.354 Z.6
G1 Z.2
G1 E.8 F1800
;TYPE:Bottom surface
;WIDTH:0.500667
G1 F4800
G1 X85.852 Y96.634 E.03864
G1 X85.205 Y96.634 E.02458
G1 X86.366 Y97.795 E.06236
G1 X86.366 Y98.443 E.02458
G1 X84.557 Y96.634 E.09712
G1 X83.91 Y96.634 E.02458
G1 X86.366 Y99.09 E.13187
G1 X86.366 Y99.738 E.02458
G1 X83.262 Y96.634 E.16663
G1 X82.615 Y96.634 E.02458
G1 X86.366 Y100.385 E.20139
G1 X86.366 Y101.032 E.02458
G1 X81.968 Y96.634 E.23615
G1 X81.32 Y96.634 E.02458
G1 X86.366 Y101.68 E.27091
G1 X86.366 Y102.327 E.02458
G1 X80.673 Y96.634 E.30567
G1 X80.026 Y96.634 E.02458
G1 X86.366 Y102.974 E.34042
G1 X86.366 Y103.622 E.02458
G1 X79.378 Y96.634 E.37518
G1 X78.731 Y96.634 E.02458
G1 X86.366 Y104.269 E.40994
G1 X86.366 Y104.916 E.02458
G1 X78.084 Y96.634 E.4447
G1 X77.436 Y96.634 E.02458
G1 X86.366 Y105.564 E.47946
G1 X86.366 Y106.211 E.02458
G1 X76.789 Y96.634 E.51421
G1 X76.142 Y96.634 E.02458
G1 X86.366 Y106.858 E.54897
G1 X86.366 Y107.506 E.02458
G1 X75.494 Y96.634 E.58373
G1 X74.847 Y96.634 E.02458
M73 P4 R32
G1 X86.366 Y108.153 E.61849
G1 X86.366 Y108.8 E.02458
G1 X74.2 Y96.634 E.65325
G1 X73.552 Y96.634 E.02458
G1 X86.366 Y109.448 E.68801
G1 X86.366 Y110.095 E.02458
G1 X72.905 Y96.634 E.72276
G1 X72.257 Y96.634 E.02458
G1 X86.366 Y110.743 E.75752
G1 X86.366 Y111.39 E.02458
G1 X71.61 Y96.634 E.79228
G1 X70.963 Y96.634 E.02458
G1 X86.366 Y112.037 E.82704
G1 X86.366 Y112.685 E.02458
G1 X70.315 Y96.634 E.8618
G1 X69.668 Y96.634 E.02458
G1 X86.366 Y113.332 E.89656
G1 X86.366 Y113.366 E.00129
G1 X85.753 Y113.366 E.02327
G1 X69.021 Y96.634 E.8984
G1 X68.373 Y96.634 E.02458
G1 X85.106 Y113.367 E.89842
G1 X84.459 Y113.367 E.02456
G1 X67.726 Y96.634 E.89844
G1 X67.079 Y96.634 E.02458
G1 X83.812 Y113.367 E.89846
G1 X83.165 Y113.368 E.02456
G1 X66.431 Y96.634 E.89847
G1 X65.784 Y96.634 E.02458
G1 X82.518 Y113.368 E.89849
G1 X81.871 Y113.368 E.02456
G1 X65.137 Y96.634 E.89851
G1 X64.489 Y96.634 E.02458
G1 X81.224 Y113.369 E.89853
G1 X80.577 Y113.369 E.02456
G1 X63.842 Y96.634 E.89855
G1 X63.195 Y96.634 E.02458
G1 X79.93 Y113.369 E.89857
G1 X79.283 Y113.37 E.02456
G1 X62.547 Y96.634 E.89859
G1 X61.9 Y96.634 E.02458
G1 X78.636 Y113.37 E.89861
G1 X77.989 Y113.37 E.02456
G1 X61.252 Y96.634 E.89863
G1 X60.605 Y96.634 E.02458
G1 X77.404 Y113.433 E.90197
G2 X76.974 Y113.65 I.397 J1.321 E.01839
G1 X59.958 Y96.634 E.91363
G1 X59.31 Y96.634 E.02458
G1 X76.648 Y113.971 E.93089
G2 X76.435 Y114.406 I1.222 J.867 E.01845
G1 X58.663 Y96.634 E.95422
G1 X58.016 Y96.634 E.02458
G1 X76.37 Y114.988 E.98547
G1 X76.369 Y115.635 E.02457
G1 X57.368 Y96.634 E1.02022
G1 X56.721 Y96.634 E.02458
G1 X76.369 Y116.282 E1.05496
G1 X76.369 Y116.929 E.02457
G1 X56.074 Y96.634 E1.0897
G1 X55.426 Y96.634 E.02458
G1 X76.368 Y117.576 E1.12445
G1 X76.368 Y118.223 E.02457
G1 X54.779 Y96.634 E1.15919
G1 X54.132 Y96.634 E.02458
G1 X76.368 Y118.87 E1.19393
G1 X76.368 Y119.517 E.02457
G1 X53.484 Y96.634 E1.22868
G1 X52.837 Y96.634 E.02458
G1 X76.367 Y120.165 E1.26342
G1 X76.367 Y120.812 E.02457
G1 X52.19 Y96.634 E1.29816
G1 X51.542 Y96.634 E.02458
G1 X76.367 Y121.459 E1.3329
G1 X76.366 Y122.106 E.02457
G1 X50.895 Y96.634 E1.36765
G1 X50.248 Y96.634 E.02458
G1 X76.366 Y122.753 E1.40239
G1 X76.366 Y123.366 E.02328
G1 X76.332 Y123.366 E.00129
G1 X49.634 Y96.668 E1.43349
G1 X49.634 Y97.315 E.02458
G1 X75.685 Y123.366 E1.39873
G1 X75.037 Y123.366 E.02458
G1 X49.634 Y97.963 E1.36397
G1 X49.634 Y98.61 E.02458
G1 X74.39 Y123.366 E1.32921
G1 X73.743 Y123.366 E.02458
M73 P5 R32
G1 X49.634 Y99.257 E1.29445
G1 X49.634 Y99.905 E.02458
G1 X73.095 Y123.366 E1.25969
G1 X72.448 Y123.366 E.02458
G1 X49.634 Y100.552 E1.22494
G1 X49.634 Y101.2 E.02458
G1 X71.8 Y123.366 E1.19018
G1 X71.153 Y123.366 E.02458
G1 X49.634 Y101.847 E1.15542
G1 X49.634 Y102.494 E.02458
G1 X70.506 Y123.366 E1.12066
G1 X69.858 Y123.366 E.02458
G1 X49.634 Y103.142 E1.0859
G1 X49.634 Y103.789 E.02458
